!!!!SEGMENT: pl-wnifc--13846--154_anonim--154-matka-nie-wiedzac-powodu.krn
!!!kernsource:
!!!cenid: 18xx:3376
!!!COM: Anonim
!!!COM-rismid: pe30004985
!!!CDT:
!!!CNT:
!!!OTL: 154. Matka nie wiedząc powodu
!!!PDT: 1833
!!!AGN:
!!!SMS-siglum: PL-Wnifc
!!!SMS-shelfmark: 13846
!!!SMS-shelfwork: 154 W
!!!NIFC-rismid: 1001039687
!!!URL-scan: http://repozytorium.nifc.pl/skany/pl-wnifc-nut--13846
!!!ONB-nifc:
!!!OMD: Vivace aſsai
**kern	**kern	**kern	**text	**text
*part2	*part2	*part1	*part1	*part1
*staff3	*staff2	*staff1	*staff1	*staff1
*clefF4	*clefG2	*clefG2	*	*
*k[f#]	*k[f#]	*k[f#]	*	*
*G:	*G:	*G:	*	*
*M6/8	*M6/8	*M6/8	*	*
=1-	=1-	=1-	=1-	=1-
!	!LO:TX:a:B:t=Vivace aʃsai	!	!	!
4G\ 4GG\`	4g/ 4B/	4g/	Ma-	posz-
8r	8g/ 8B/	8g/	-tka	-ła
4G\ 4GG\`	4b/ 4g/	4b/	nie	Fi-
8r	8b/ 8g/	8b/	wie-	-lis
=2	=2	=2	=2	=2
4G/ 4GG/	4dd\ 4b\	4dd\	-dząc	do
8r	8dd\L 8b\	8dd\	po-	o-
4G/ 4GG/	(8dd\ 8b\	(8dd\L	-wo-	-gro-
.	8cc\ 8a\)	8cc\J)	du	-du
8r	8b\J 8g\`	8b\	.	.
=3	=3	=3	=3	=3
*^	*	*	*	*
4F#/`	4D\	8a/L 8d/	8a/	tra	tra
.	.	8a/ 8d/	8a/	la	la
4ryy	8r	8a/J 8d/	8a/	la	la
.	4D/ 4DD/`	(8cc\L 8a\	8cc/	tra	tra
4ryy	.	8b\ 8g\)	8b/	la	la
.	8r	8a\J 8d\	8a/	la	la
*v	*v	*	*	*	*
!!LO:LB:g=original
=4	=4	=4	=4	=4
8GG/`L	8g/L 8B/	8g/	tra	tra
8BB/`	8g/ 8B/	8g/	la	la
8D\`J	8g/J 8B/	8g/	la	la
4GG/`	4g/ 4B/	4g/	la.	la.
8r	8r	8r	.	.
=5:|!|:	=5:|!|:	=5:|!|:	=5:|!|:	=5:|!|:
4c\ 4C\`	4ee\ 4cc\	4ee\	gdzie	.
8r	8ee\ 8cc\	8ee\	cze-	.
!	!	!LO:N:vis=8	!	!
4C/ 4CC/`	(8gg\L 8ee\	(8.gg\L	-ka-	.
.	8ff#\ 8dd\)	.	.	.
.	.	16ff#\Jk)	.	.
8r	8ee\J 8cc\`	8ee\`	-jąc	.
=6	=6	=6	=6	=6
4G/ 4GG/`	8.ee\L 8.cc\`	(8.ee\L	Fi-	.
.	16dd\K 16b\`	16dd\Jk)	.	.
8r	8dd\J 8b\`	8dd\	-lo-	.
4GG/ 4GGG/`	4dd\ 4b\	4dd\	-na	.
8r	8r	8r	.	.
!!LO:LB:g=original
=7	=7	=7	=7	=7
4D\	4cc\ 4a\	4cc\	u-	.
8r	8cc\ 8a\	8cc\	-snę-	.
4DD/	(8.ee\L 8.cc\	(8.ee\L	-ła	.
.	16dd\Jk 16b\)	16dd\Jk)	.	.
8r	8cc/ 8a/	8cc\	-snem	.
=8	=8	=8	=8	=8
4GG/	(8.cc\L 8.a\	(8.cc\L	zmo-	.
.	16b\K 16g\)	16b\Jk)	.	.
8r	8b\J 8g\`	8b\	-rzo-	.
4G\	4b\ 4g\	4b\	-na	.
8r	8r	8r	.	.
=9	=9	=9	=9	=9
4D\	8a/L 8f#/	8a/	tra	.
.	8a/ 8f#/	8a/	la	.
8r	8a/J 8f#/	8a/	la	.
4DD/	8cc\L 8a\	8cc/	tra	.
.	8b\ 8g\	8b/	la	.
8r	8a\J 8f#\	8a/	la	.
!!LO:LB:g=original
=10	=10	=10	=10	=10
4G\	8b/L 8g/	8b\	tra	.
.	8b/ 8g/	8b\	la	.
8r	8b/J 8g/	8b\	la	.
4GG/	8dd\L 8b\	8dd\	tra	.
.	8cc/ 8a/	8cc\	la	.
8r	8b/J 8g/	8b\	la	.
=11	=11	=11	=11	=11
4d\ 4D\	4a/ 4f#/	4a/	u-	.
8r	8a/ 8f#/	8a/	-snę-	.
4D/ 4DD/	(8cc\L 8a\	(8cc\L	-ła	.
.	8b\ 8g\)	8b\J)	.	.
8r	8a/J 8d/`	8a/	-snem	.
=12	=12	=12	=12	=12
8GG/`L	4g/ 4B/	4g/	zmo-	.
8BB/`	.	.	.	.
8D\`J	8g/ 8B/	8g/	-rzo-	.
4G\`	4g/ 4B/	4g/	-na.	.
8r	8r	8r	.	.
==	==	==	==	==
*-	*-	*-	*-	*-
!!!system-decoration: s1,{(s2,s3)}
!!!RDF**kern: > = above
!!!RDF**kern: < = below
!!!ENC: Leszek Kubiak
!!!END: 2021-11-12
